src/icons/rescript.svg

<svg viewBox="0 0 100 100" xmlns="http://www.w3.org/2000/svg">
  <path d="M86.847 16.258C85.9748 15.0668 84.9221 14.0189 83.727 13.152C80.033 10.462 74.757 10.462 64.203 10.462H35.78C25.228 10.462 19.952 10.462 16.256 13.152C15.0626 14.0158 14.0144 15.0643 13.151 16.258C10.46 19.953 10.46 25.229 10.46 35.796V64.204C10.46 74.756 10.46 80.029 13.15 83.728C14.0168 84.9231 15.0648 85.9758 16.256 86.848C19.951 89.539 25.227 89.539 35.78 89.539H64.203C74.755 89.539 80.028 89.539 83.727 86.848C84.9193 85.9723 85.9713 84.9203 86.847 83.728C89.539 80.034 89.539 74.757 89.539 64.204V35.796C89.535 25.229 89.535 19.953 86.847 16.258ZM47.082 64.248C47.082 66.721 47.082 67.972 46.68 68.948C46.1403 70.2499 45.1059 71.2843 43.804 71.824C42.827 72.226 41.591 72.226 39.103 72.226C36.63 72.226 35.379 72.226 34.403 71.824C33.1013 71.2845 32.0669 70.2505 31.527 68.949C31.124 67.972 31.124 66.721 31.124 64.248V38.169C31.124 35.179 31.124 33.684 31.7 32.549C32.2128 31.5473 33.0275 30.7322 34.029 30.219C35.162 29.644 36.66 29.644 39.636 29.644H47.083L47.082 64.248ZM64.048 48.733C62.1912 48.733 60.3761 48.1824 58.8323 47.1508C57.2884 46.1193 56.0852 44.6531 55.3746 42.9376C54.6641 41.2222 54.4781 39.3346 54.8404 37.5135C55.2026 35.6924 56.0967 34.0196 57.4097 32.7067C58.7226 31.3938 60.3954 30.4996 62.2165 30.1374C64.0376 29.7752 65.9252 29.9611 67.6406 30.6716C69.3561 31.3822 70.8223 32.5855 71.8538 34.1293C72.8854 35.6732 73.436 37.4882 73.436 39.345C73.4369 40.577 73.1951 41.7971 72.7245 42.9357C72.2538 44.0743 71.5635 45.109 70.693 45.9808C69.8224 46.8526 68.7886 47.5443 67.6507 48.0165C66.5128 48.4888 65.293 48.7322 64.061 48.733H64.048Z" fill="#EF5350"/>
</svg>

<svg viewBox="0 0 100 100" xmlns="http://www.w3.org/2000/svg">
  <path
    d="M86.847 16.258a14.201 14.201 0 0 0-3.12-3.106c-3.694-2.69-8.97-2.69-19.524-2.69H35.78c-10.552 0-15.828 0-19.524 2.69a13.867 13.867 0 0 0-3.105 3.106c-2.691 3.695-2.691 8.971-2.691 19.538v28.408c0 10.552 0 15.825 2.69 19.524a14.201 14.201 0 0 0 3.106 3.12c3.695 2.691 8.971 2.691 19.524 2.691h28.423c10.552 0 15.825 0 19.524-2.691a14.578 14.578 0 0 0 3.12-3.12c2.692-3.694 2.692-8.971 2.692-19.524V35.796c-.004-10.567-.004-15.843-2.692-19.538zm-39.765 47.99c0 2.473 0 3.724-.402 4.7a5.318 5.318 0 0 1-2.876 2.876c-.977.402-2.213.402-4.701.402-2.473 0-3.724 0-4.7-.402a5.318 5.318 0 0 1-2.876-2.875c-.403-.977-.403-2.228-.403-4.701V38.169c0-2.99 0-4.485.576-5.62a5.365 5.365 0 0 1 2.329-2.33c1.133-.575 2.631-.575 5.607-.575h7.447zm16.966-15.515a9.388 9.388 0 1 1 9.388-9.388 9.381 9.381 0 0 1-9.375 9.388z"
    fill="#fff"
    style="fill: #ef5350; stroke-width: 0.67058"
  />
</svg>
